svgs/light/pen-line.svg

<svg xmlns="http://www.w3.org/2000/svg" viewBox="0 0 576 512"><!--! Font Awesome Pro 6.0.0-alpha3 by @fontawesome - https://fontawesome.com License - https://fontawesome.com/license (Commercial License) --><path d="M560 480h-320C231.2 480 224 487.2 224 496C224 504.8 231.2 512 240 512h320c8.836 0 16-7.164 16-16C576 487.2 568.8 480 560 480zM493.2 56.26l-37.51-37.51C443.2 6.252 426.8 0 410.5 0c-16.38 0-32.76 6.25-45.26 18.75L45.11 338.9c-8.568 8.566-14.53 19.39-17.18 31.21l-27.61 122.8C-1.7 502.1 6.158 512 15.95 512c1.047 0 2.116-.1034 3.198-.3202c0 0 84.61-17.95 122.8-26.93c11.54-2.717 21.87-8.523 30.25-16.9l321.2-321.2C518.3 121.7 518.2 81.26 493.2 56.26zM149.5 445.2c-4.219 4.219-9.252 7.039-14.96 8.383c-24.68 5.811-69.64 15.55-97.46 21.52l22.04-98.01c1.332-5.918 4.303-11.31 8.594-15.6l247.6-247.6l82.76 82.76L149.5 445.2zM470.7 124l-50.03 50.02l-82.76-82.76l49.93-49.93C393.9 35.33 401.9 32 410.5 32s16.58 3.33 22.63 9.375l37.51 37.51C483.1 91.37 483.1 111.6 470.7 124z"/></svg>

<svg xmlns="http://www.w3.org/2000/svg" viewBox="0 0 576 512"><!-- Font Awesome Pro 6.0.0-alpha2 by @fontawesome - https://fontawesome.com License - https://fontawesome.com/license (Commercial License) --><path d="M560 480H240C231.164 480 224 487.162 224 496C224 504.836 231.164 512 240 512H560C568.836 512 576 504.836 576 496C576 487.162 568.836 480 560 480ZM493.256 56.262L455.744 18.748C443.248 6.252 426.868 0 410.489 0C394.106 0 377.729 6.25 365.229 18.75L45.114 338.885C36.545 347.451 30.586 358.275 27.928 370.094L0.319 492.854C-1.701 502.967 6.159 512 15.948 512C16.994 512 18.063 511.896 19.145 511.68C19.145 511.68 103.76 493.73 141.907 484.748C153.446 482.031 163.774 476.225 172.155 467.844C221.284 418.719 406.686 233.33 493.346 146.676C518.34 121.684 518.248 81.256 493.256 56.262ZM149.528 445.217C145.309 449.436 140.276 452.256 134.573 453.6C109.897 459.41 64.936 469.148 37.108 475.121L59.149 377.115C60.481 371.197 63.452 365.803 67.743 361.512L315.307 113.932L398.069 196.693L149.528 445.217ZM470.721 124.047L420.696 174.07L337.932 91.307L387.86 41.375C393.905 35.33 401.942 32 410.489 32S427.073 35.33 433.118 41.375L470.629 78.889C483.104 91.365 483.145 111.623 470.721 124.047Z"/></svg>
